X: 21929
T: Kitten Feels Better, The
R: reel
M: 4/4
K: Gmajor
E|DEGE ~B3A|BedB AGEG|A2BG AGEG|~e3d BAGE|
DEGE ABBA|B3d AGEG|A2BG AGEG|DEGA G3:|A|:
Bdeg e2dB|dega geeB|deed BAGE|AGBG AGEG|
DEGE B2AB|dega geeB|dedB BAGE|DEGA G3:|

